X:011
T:Worster Hp,The,aka TS.011
T:Worcester Hp,aka TS.011
T:Navy Hp,The,aka TS.011
T:New Bridge Hp,The,aka TS.011
C:untitled(‘Hornpipe’) in MS
M:C|
L:1/8
Q:1/2=90
S:Thomas Sands’ MS,1810,Lincolnshire
R:.hornpipe
O:England;Lincolnshire
Z:vmp.Ruairidh Greig, 2011
K:Eb
GF|EB,G,B, EGEG|cBcd fedc|BGEG BGEG|FDB,D FDB,D|
EB,G,B, EGEG|cBcd fedc|BGEG FDB,D|E2E2E2:|
|:”qu. rest omitted”BA|GBEB “as writ”GBGB|AcFA AcFA|GBEB GBEB|DFB,F DFB.F|
GBEB GBEB|cBcd fedc|BGEG FDB,D|E2E2E2:|]

